fs/contact_card_ribbon_32_regular.svg

<svg viewBox="0 0 32 32" fill="none" xmlns="http://www.w3.org/2000/svg" height="1em" width="1em">
  <path d="M17 13C17 12.4477 17.4477 12 18 12H25.0004C25.5526 12 26.0004 12.4477 26.0004 13C26.0004 13.1859 25.9496 13.36 25.8612 13.5092C25.7416 13.5031 25.6211 13.5 25.5 13.5C24.5801 13.5 23.7016 13.6775 22.8969 14H18C17.4477 14 17 13.5523 17 13ZM28 7.25V13.9596C28.734 14.2404 29.4087 14.6411 30 15.1379V7.25C30 5.45508 28.5449 4 26.75 4H5.25C3.45507 4 2 5.45508 2 7.25V24.75C2 26.5449 3.45507 28 5.25 28H19.5V26H5.25C4.55964 26 4 25.4404 4 24.75V7.25C4 6.55964 4.55964 6 5.25 6H26.75C27.4404 6 28 6.55964 28 7.25ZM18 17H19.4365C19.0814 17.6138 18.8168 18.2866 18.6611 19H18C17.4477 19 17 18.5523 17 18C17 17.4477 17.4477 17 18 17ZM21.2572 17C20.779 17.579 20.417 18.2576 20.207 19C20.0722 19.4768 20 19.98 20 20.5C20 23.5376 22.4624 26 25.5 26C26.2924 26 27.0456 25.8324 27.7262 25.5308C28.2554 25.2963 28.7406 24.9808 29.1662 24.5999C29.4783 24.3207 29.7583 24.0063 30 23.6631C30.63 22.7684 31 21.6774 31 20.5C31 19.3226 30.63 18.2316 30 17.3369C29.4863 16.6075 28.7998 16.0086 28 15.5997C27.2499 15.2163 26.4002 15 25.5 15C23.7921 15 22.266 15.7785 21.2572 17ZM22.5 26.5486C22.18 26.3896 21.8743 26.2059 21.5856 26C21.3817 25.8546 21.1862 25.6981 21 25.5315V30.0497C21 30.791 21.8111 31.2466 22.4442 30.861L25.5 28.9997L28.5558 30.861C29.1889 31.2466 30 30.791 30 30.0497V25.5315C29.9594 25.5678 29.9184 25.6037 29.8769 25.639C29.4589 25.9954 28.9968 26.3017 28.5 26.5486C27.5994 26.9962 26.5847 27.2485 25.5113 27.2502L25.5093 27.2502C25.5062 27.2503 25.5031 27.2503 25.5 27.2503C25.4969 27.2503 25.4938 27.2503 25.4907 27.2502L25.4887 27.2502C24.4153 27.2485 23.4006 26.9962 22.5 26.5486ZM13 13C13 14.1046 12.1046 15 11 15C9.89543 15 9 14.1046 9 13C9 11.8954 9.89543 11 11 11C12.1046 11 13 11.8954 13 13ZM7 17.5C7 16.6716 7.67157 16 8.5 16H13.5C14.3284 16 15 16.6716 15 17.5C15 17.5 15 21 11 21C7 21 7 17.5 7 17.5Z" fill="#212121"/>
</svg>

<svg viewBox="0 0 32 32" fill="none" xmlns="http://www.w3.org/2000/svg" height="1em" width="1em">
  <path d="M17 13a1 1 0 0 1 1-1h7a1 1 0 0 1 .861 1.51 6.982 6.982 0 0 0-2.964.49H18a1 1 0 0 1-1-1Zm11-5.75v6.71c.734.28 1.409.681 2 1.178V7.25A3.25 3.25 0 0 0 26.75 4H5.25A3.25 3.25 0 0 0 2 7.25v17.5A3.25 3.25 0 0 0 5.25 28H19.5v-2H5.25C4.56 26 4 25.44 4 24.75V7.25C4 6.56 4.56 6 5.25 6h21.5c.69 0 1.25.56 1.25 1.25ZM18 17h1.436a6.953 6.953 0 0 0-.775 2H18a1 1 0 1 1 0-2Zm3.257 0A5.486 5.486 0 0 0 20 20.5a5.5 5.5 0 1 0 1.257-3.5Zm1.243 9.549a6.74 6.74 0 0 1-1.5-1.017v4.518a.95.95 0 0 0 1.444.811L25.5 29l3.056 1.861A.95.95 0 0 0 30 30.05v-4.518l-.123.107a6.72 6.72 0 0 1-4.366 1.611h-.022a6.72 6.72 0 0 1-2.989-.701ZM13 13a2 2 0 1 1-4 0 2 2 0 0 1 4 0Zm-6 4.5A1.5 1.5 0 0 1 8.5 16h5a1.5 1.5 0 0 1 1.5 1.5s0 3.5-4 3.5-4-3.5-4-3.5Z" fill="#212121"/>
</svg>
